uploads/global/icon-donation.svg

<svg width="50" height="50" viewBox="0 0 50 50" fill="none" xmlns="http://www.w3.org/2000/svg">
<g clip-path="url(#clip0)">
<path d="M20.14 29.0098C20.0092 28.9897 19.8758 28.9957 19.7474 29.0276C19.619 29.0594 19.4982 29.1164 19.392 29.1952C19.2858 29.2741 19.1962 29.3732 19.1286 29.4869C19.061 29.6006 19.0166 29.7266 18.998 29.8576C18.9794 29.9885 18.9869 30.1219 19.0202 30.2499C19.0535 30.3779 19.1119 30.4981 19.192 30.6034C19.2721 30.7087 19.3722 30.7971 19.4867 30.8634C19.6011 30.9297 19.7276 30.9727 19.8588 30.9898L19.8682 30.9912L25.8104 32.1796C25.9323 31.9059 25.9969 31.6102 26 31.3106C26 30.4182 27.4572 29.64 26.6478 29.2976C26.2859 29.4663 25.8846 29.5322 25.4878 29.4882L20.14 29.0098Z" fill="#CDECF9"/>
<path d="M46.1492 25.6241L31.0216 39.1775C30.6367 39.5429 30.1617 39.7995 29.6451 39.921C29.1285 40.0424 28.589 40.0245 28.0816 39.8689L11.3276 34.0545C11.2017 34.0102 11.0681 33.9917 10.9348 34.0003C10.8016 34.0089 10.6714 34.0442 10.5522 34.1043L8 35.3799V39.3799L10.5528 38.1035C10.672 38.0434 10.8022 38.0081 10.9354 37.9995C11.0687 37.9909 11.2023 38.0094 11.3282 38.0537L28.0822 43.8681C28.5896 44.0237 29.1292 44.0416 29.6457 43.9202C30.1623 43.7987 30.6373 43.5421 31.0222 43.1767L47.5104 28.4043C47.6788 28.2413 47.8097 28.0435 47.894 27.8248C47.9783 27.6061 48.014 27.3716 47.9986 27.1377C47.9874 26.9129 47.9293 26.6929 47.8279 26.4918C47.7265 26.2908 47.5842 26.1133 47.41 25.9706C47.2358 25.8279 47.0337 25.7233 46.8167 25.6635C46.5996 25.6037 46.3725 25.59 46.1498 25.6233L46.1492 25.6241Z" fill="#CDECF9"/>
<path d="M35 18H31C30.7348 18 30.4804 18.1054 30.2929 18.2929C30.1054 18.4804 30 18.7348 30 19C30 19.2652 30.1054 19.5196 30.2929 19.7071C30.4804 19.8946 30.7348 20 31 20H34V21C34 21.2652 34.1054 21.5196 34.2929 21.7071C34.4804 21.8946 34.7348 22 35 22C35.2652 22 35.5196 21.8946 35.7071 21.7071C35.8946 21.5196 36 21.2652 36 21V20H38C38.5304 20 39.0391 19.7893 39.4142 19.4142C39.7893 19.0391 40 18.5304 40 18V14C40 13.4696 39.7893 12.9609 39.4142 12.5858C39.0391 12.2107 38.5304 12 38 12H32V8H39C39.2652 8 39.5196 7.89464 39.7071 7.70711C39.8946 7.51957 40 7.26522 40 7C40 6.73478 39.8946 6.48043 39.7071 6.29289C39.5196 6.10536 39.2652 6 39 6H36V5C36 4.73478 35.8946 4.48043 35.7071 4.29289C35.5196 4.10536 35.2652 4 35 4C34.7348 4 34.4804 4.10536 34.2929 4.29289C34.1054 4.48043 34 4.73478 34 5V6H32C31.4696 6 30.9609 6.21071 30.5858 6.58579C30.2107 6.96086 30 7.46957 30 8V12C30 12.5304 30.2107 13.0391 30.5858 13.4142C30.9609 13.7893 31.4696 14 32 14H38V18H35Z" fill="#06A0E3"/>
<path d="M48.541 24.32C47.946 23.8713 47.2271 23.6169 46.4823 23.5916C45.7375 23.5662 45.0029 23.7712 44.3788 24.1784L29.8164 32.942L26.7036 32.32C27.2265 31.8216 27.6113 31.1963 27.8206 30.505C28.03 29.8137 28.0566 29.0799 27.898 28.3752C27.7394 27.6705 27.401 27.0189 26.9157 26.4839C26.4304 25.9489 25.8148 25.5487 25.1288 25.3224L15.3164 22.0518C15.136 21.992 14.9423 21.9846 14.7578 22.0304L7.946 23.7336C7.88666 23.2579 7.65667 22.82 7.29875 22.5011C6.94083 22.1823 6.47933 22.0042 6 22H1C0.734784 22 0.48043 22.1054 0.292893 22.2929C0.105357 22.4804 0 22.7348 0 23C0 23.2652 0.105357 23.5196 0.292893 23.7071C0.48043 23.8946 0.734784 24 1 24H6V42H1C0.734784 42 0.48043 42.1054 0.292893 42.2929C0.105357 42.4804 0 42.7348 0 43C0 43.2652 0.105357 43.5196 0.292893 43.7071C0.48043 43.8946 0.734784 44 1 44H6C6.53027 43.9995 7.03867 43.7886 7.41363 43.4136C7.78859 43.0387 7.99947 42.5303 8 42V41.6172L11.0704 40.082L27.4532 45.7666C28.2992 46.0348 29.2015 46.0726 30.0669 45.876C30.9324 45.6795 31.7298 45.2557 32.377 44.6484L48.8652 29.876C49.2498 29.5113 49.55 29.067 49.745 28.5742C49.94 28.0814 50.0251 27.5519 49.9942 27.0229C49.9633 26.4938 49.8173 25.9778 49.5663 25.511C49.3153 25.0442 48.9654 24.6379 48.541 24.3204V24.32ZM47.5098 28.405L31.0216 43.1774C30.6367 43.5428 30.1617 43.7993 29.6451 43.9208C29.1286 44.0423 28.589 44.0244 28.0816 43.8688L11.3276 38.0544C11.2017 38.01 11.0681 37.9916 10.9348 38.0002C10.8016 38.0087 10.6714 38.0441 10.5522 38.1042L8 39.38V25.78L14.96 24.04L24.4952 27.2178C25.0173 27.3913 25.4555 27.754 25.7236 28.2343C25.9917 28.7147 26.0703 29.2781 25.9439 29.8135C25.8175 30.3489 25.4953 30.8176 25.0407 31.1274C24.5861 31.4372 24.0319 31.5656 23.4874 31.4874L20.14 31.0098C20.0093 30.9897 19.8758 30.9957 19.7474 31.0276C19.619 31.0594 19.4982 31.1164 19.392 31.1952C19.2858 31.2741 19.1962 31.3732 19.1286 31.4869C19.061 31.6006 19.0166 31.7266 18.998 31.8576C18.9794 31.9886 18.9869 32.1219 19.0203 32.2499C19.0536 32.378 19.1119 32.4981 19.192 32.6034C19.2721 32.7087 19.3722 32.7971 19.4867 32.8634C19.6011 32.9297 19.7276 32.9727 19.8588 32.9898L19.8682 32.9912L29.8044 34.9786C30.0486 35.0276 30.3022 34.9834 30.5154 34.8546L45.449 25.8654C45.6897 25.7056 45.9683 25.612 46.2567 25.5942C46.5451 25.5764 46.8331 25.635 47.0916 25.7641C47.3501 25.8932 47.57 26.0881 47.7291 26.3293C47.8882 26.5705 47.9809 26.8494 47.9978 27.1378C48.0134 27.3718 47.9778 27.6064 47.8935 27.8253C47.8092 28.0442 47.6783 28.242 47.5098 28.4052V28.405Z" fill="#06A0E3"/>
</g>
<defs>
<clipPath id="clip0">
<rect width="50" height="50" fill="white"/>
</clipPath>
</defs>
</svg>

<svg width="50" height="50" fill="none" xmlns="http://www.w3.org/2000/svg"><g clip-path="url(#clip0)"><path d="M20.14 29.01a.999.999 0 1 0-.281 1.98l.01.001 5.941 1.189c.122-.274.187-.57.19-.87 0-.892 1.457-1.67.648-2.012a2.178 2.178 0 0 1-1.16.19l-5.348-.478z" fill="#CDECF9"/><path d="M46.15 25.624L31.021 39.178a2.995 2.995 0 0 1-2.94.69l-16.754-5.814a.991.991 0 0 0-.776.05L8 35.38v4l2.553-1.277a.992.992 0 0 1 .775-.05l16.754 5.815a2.995 2.995 0 0 0 2.94-.691L47.51 28.404A1.615 1.615 0 0 0 48 27.138a1.613 1.613 0 0 0-1.85-1.515v.001z" fill="#CDECF9"/><path d="M35 18h-4a1 1 0 0 0 0 2h3v1a1 1 0 0 0 2 0v-1h2a2 2 0 0 0 2-2v-4a2 2 0 0 0-2-2h-6V8h7a1 1 0 1 0 0-2h-3V5a1 1 0 0 0-2 0v1h-2a2 2 0 0 0-2 2v4a2 2 0 0 0 2 2h6v4h-3zm13.541 6.32a3.624 3.624 0 0 0-4.162-.142l-14.563 8.764-3.112-.622a4.181 4.181 0 0 0-1.575-6.998l-9.813-3.27a1.005 1.005 0 0 0-.558-.022l-6.812 1.704A1.979 1.979 0 0 0 6 22H1a1 1 0 0 0 0 2h5v18H1a1 1 0 0 0 0 2h5a2.002 2.002 0 0 0 2-2v-.383l3.07-1.535 16.383 5.685a4.99 4.99 0 0 0 4.924-1.119l16.488-14.772a3.64 3.64 0 0 0-.324-5.556zm-1.031 4.085L31.022 43.177a2.995 2.995 0 0 1-2.94.692l-16.754-5.815a.99.99 0 0 0-.776.05L8 39.38v-13.6l6.96-1.74 9.535 3.178a2.202 2.202 0 0 1-1.008 4.27l-3.347-.478a.999.999 0 1 0-.281 1.98l.01.001 9.935 1.988a.996.996 0 0 0 .711-.124l14.934-8.99a1.643 1.643 0 0 1 2.06 2.54z" fill="#06A0E3"/></g><defs><clipPath id="clip0"><path fill="#fff" d="M0 0H50V50H0z"/></clipPath></defs></svg>
